X: 1
T: Gilansko
M: 4/4
L: 1/8
P: AA BA B/2 CC DE
%%staffsep 40
K: D=B_e
"A"\
|: "Dm"agaf gfg=e | f=efe g_eed | "Cm"cf=eg f_eed ||1,3 dzag fagz :|2,4 "Dm"d3c Bcdz :|
"B"\
|: "Dm"Bcd=e fefa | "Cm"gfed  c2z2 \
|  "Cm"z2g2- geed |     dzg2- geed |
|  "Dm"Bcd=e fefa | "Cm"gfed  c2z2 \
|  "Dm"agfa  geed ||1   dz zA Bcdz :|2 d6 z2 |]
%%text ride in D minor - 12 measures - come back in on 2nd part of dance
"C"\
|: "Dm"Adf_b agaF | Adfa gfgz | "Cm"e2fg geed ||1,3 "Dm"d2ag fagF :|2,4 "Dm"d3c BcdF :|
"D"\
|: "Cm"=e2fg g_eed | "Dm"d2ag fagc | "Cm"=e2fg g_eed ||1-3 "Dm"d3c Bcdc :|4 "Cm"d3 z z4 |]
z2dd dddd \
"E"\
|| "Dm"d2fg adad | adad adad | f2ga gafg | "Cm"efed "Dm"dcdz ||
"F"\
|: "Dm"zdfd gdad | adad a[gd]ad | f2ga aga2 | "Cm"fged "Dm"d2z2 :|
